Newaita-dark/apps/24/transmission.svg

<svg height="24" viewBox="0 0 24 24" width="24" xmlns="http://www.w3.org/2000/svg" xmlns:xlink="http://www.w3.org/1999/xlink"><linearGradient id="a" gradientTransform="matrix(0 .0468795 -.0468795 0 14.04724 23.506149)" gradientUnits="userSpaceOnUse" x1="-349.249969" x2="-433.916626" y1="87.979172" y2="87.979172"><stop offset="0" stop-color="#f44336"/><stop offset="1" stop-color="#ef5350"/></linearGradient><linearGradient id="b"><stop offset="0" stop-opacity=".313726"/><stop offset=".222222" stop-opacity=".27451"/><stop offset="1" stop-opacity="0"/></linearGradient><radialGradient id="c" cx="450.908936" cy="189.579361" gradientTransform="matrix(.00000009 -.0585994 -.0703192 -.00000008 25.238423 47.944567)" gradientUnits="userSpaceOnUse" r="21.166656" xlink:href="#b"/><radialGradient id="d" cx="450.908936" cy="189.579361" gradientTransform="matrix(-.00000009 .0585994 .0703192 .00000008 -1.423646 -5.397541)" gradientUnits="userSpaceOnUse" r="21.166656" xlink:href="#b"/><radialGradient id="e" cx="450.908936" cy="189.579361" gradientTransform="matrix(-.00000009 -.0585994 .0703192 -.00000008 -1.423646 47.944567)" gradientUnits="userSpaceOnUse" r="21.166656" xlink:href="#b"/><radialGradient id="f" cx="450.908936" cy="189.579361" gradientTransform="matrix(.00000009 .0585994 -.0703192 .00000008 25.238422 -5.397542)" gradientUnits="userSpaceOnUse" r="21.166656" xlink:href="#b"/><linearGradient id="g" gradientTransform="matrix(.00668003 0 0 .0468795 10.20182 10.327158)" gradientUnits="userSpaceOnUse" x1="255.323059" x2="255.323044" y1="233.5" y2="254.666656"><stop offset="0" stop-opacity=".27451"/><stop offset="1" stop-opacity="0"/></linearGradient><linearGradient id="h" gradientUnits="userSpaceOnUse" x1="11.907393" x2="11.907393" y1="21.02545025" y2="3.16436075"><stop offset="0" stop-color="#bdbdbd"/><stop offset="1" stop-color="#e0e0e0"/></linearGradient><path d="m20.839844 5.644531c0 .824219-.667969 1.488281-1.492188 1.488281h-14.882812c-.820313 0-1.488282-.664062-1.488282-1.488281 0-.820312.667969-1.488281 1.488282-1.488281h14.882812c.824219 0 1.492188.667969 1.492188 1.488281zm0 0" fill="url(#a)"/><path d="m12.074219 21.273438h1.320312v-.992188h-1.320312zm0 0" fill="url(#c)"/><path d="m11.742188 21.273438h-1.324219v.992187h1.324219zm0 0" fill="url(#d)"/><path d="m11.742188 21.273438h-1.324219v-.992188h1.324219zm0 0" fill="url(#e)"/><path d="m12.074219 21.273438h1.320312v.992187h-1.320312zm0 0" fill="url(#f)"/><path d="m11.742188 21.027344h.332031v1.238281h-.332031zm0 0" fill="url(#g)"/><path d="m4.464844 4.15625c-.824219 0-1.488282.664062-1.488282 1.488281 0 .066407.003907.128907.011719.195313.09375-.734375.71875-1.296875 1.476563-1.296875h14.882812c.761719 0 1.382813.5625 1.476563 1.296875.007812-.066406.015625-.128906.015625-.195313 0-.824219-.664063-1.488281-1.492188-1.488281zm0 0" fill="#fff" fill-opacity=".392157"/><path d="m4.464844 7.125c-.824219 0-1.488282-.664062-1.488282-1.488281 0-.066407.003907-.128907.011719-.195313.09375.734375.71875 1.296875 1.476563 1.296875h14.882812c.761719 0 1.382813-.5625 1.476563-1.296875.007812.066406.015625.128906.015625.195313 0 .824219-.664063 1.488281-1.492188 1.488281zm0 0" fill-opacity=".235294"/><path d="m-94.594831-444.540882c17.581654 0 31.746968 14.24864 31.746968 31.830294v317.469683c0 17.498329-14.165314 31.746968-31.746968 31.746968-17.498329 0-31.746969-14.248639-31.746969-31.746968v-317.469683c0-17.581654 14.24864-31.830294 31.746969-31.830294zm0 0" fill="none" stroke="#212121" stroke-linecap="square" stroke-linejoin="bevel" stroke-width="3" transform="matrix(0 .0468795 -.0468795 0 0 10.079087)"/><path d="m10.914062 3.179688c-.546874 0-.992187.441406-.992187.992187v10.976563l-4.570313-1.960938c-.121093-.050781-.253906-.078125-.386718-.078125-.917969-.003906-1.34375 1.136719-.644532 1.734375l6.945313 5.953125c.367187.320313.914063.320313 1.285156 0l6.945313-5.953125c.371094-.316406.453125-.855469.195312-1.269531-.257812-.414063-.777344-.578125-1.226562-.386719l-4.574219 1.960938v-10.976563c0-.550781-.441406-.992187-.992187-.992187zm0 0" fill="url(#h)"/><path d="m10.914062 3.179688c-.546874 0-.992187.441406-.992187.992187v.355469c0-.546875.445313-.992188.992187-.992188h1.984376c.550781 0 .992187.445313.992187.992188v-.355469c0-.550781-.441406-.992187-.992187-.992187zm7.9375 9.929687c-.128906 0-.261718.023437-.386718.078125l-4.574219 1.960938v.355468l4.574219-1.960937c.449218-.191407.96875-.027344 1.226562.386719.066406.109374.109375.226562.132813.34375.042969-.234376 0-.484376-.132813-.699219-.183594-.296875-.507812-.464844-.839844-.464844zm-13.886718 0c-.671875-.003906-1.082032.609375-.976563 1.171875.078125-.4375.445313-.820312.976563-.816406.132812 0 .265625.027344.386718.078125l4.570313 1.960937v-.355468l-4.570313-1.960938c-.121093-.050781-.253906-.078125-.386718-.078125zm0 0" fill="#fff" fill-opacity=".784314"/><path d="m19.824219 13.90625c-.042969.214844-.152344.414062-.328125.5625l-6.945313 5.953125c-.371093.316406-.917969.316406-1.285156 0l-6.945313-5.953125c-.183593-.15625-.289062-.351562-.328124-.554688-.0625.324219.03125.675782.328124.929688l6.945313 5.953125c.367187.320313.914063.320313 1.285156 0l6.945313-5.953125c.277344-.234375.390625-.597656.328125-.9375zm0 0" fill-opacity=".235294"/><path d="m232.811101-147.173144c-11.665553 0-21.164646 9.415768-21.164646 21.164646v234.144307l-97.49069-41.829339c-2.583086-1.08323-5.416149-1.666508-8.249212-1.666508-19.581463-.083325-28.663929 24.247685-13.748687 36.996467l148.152519 126.987874c7.832585 6.832681 19.498138 6.832681 27.414049 0l148.152518-126.987874c7.915911-6.749355 9.665744-18.248257 4.166269-27.080747s-16.58175-12.332156-26.164168-8.249212l-97.574015 41.829339v-234.144307c0-11.748878-9.415768-21.164646-21.164646-21.164646zm0 0" fill="none" stroke="#212121" stroke-linecap="round" stroke-linejoin="round" stroke-width="3" transform="matrix(.0468795 0 0 .0468795 0 10.079087)"/></svg>

<?xml version="1.0" encoding="UTF-8"?>
<svg xmlns="http://www.w3.org/2000/svg" xmlns:xlink="http://www.w3.org/1999/xlink" width="24px" height="24px" viewBox="0 0 24 24" version="1.1">
<defs>
<linearGradient id="linear0" gradientUnits="userSpaceOnUse" x1="-349.249969" y1="87.979172" x2="-433.916626" y2="87.979172" gradientTransform="matrix(0.000000000000000003,0.0468795,-0.0468795,0.000000000000000003,14.04724,23.506149)">
<stop offset="0" style="stop-color:rgb(95.686275%,26.274511%,21.176471%);stop-opacity:1;"/>
<stop offset="1" style="stop-color:rgb(93.725491%,32.549021%,31.37255%);stop-opacity:1;"/>
</linearGradient>
<radialGradient id="radial0" gradientUnits="userSpaceOnUse" cx="450.908936" cy="189.579361" fx="450.908936" fy="189.579361" r="21.166656" gradientTransform="matrix(0.0000000870852,-0.0585994,-0.0703192,-0.0000000761539,25.238423,47.944567)">
<stop offset="0" style="stop-color:rgb(0%,0%,0%);stop-opacity:0.313726;"/>
<stop offset="0.222222" style="stop-color:rgb(0%,0%,0%);stop-opacity:0.27451;"/>
<stop offset="1" style="stop-color:rgb(0%,0%,0%);stop-opacity:0;"/>
</radialGradient>
<radialGradient id="radial1" gradientUnits="userSpaceOnUse" cx="450.908936" cy="189.579361" fx="450.908936" fy="189.579361" r="21.166656" gradientTransform="matrix(-0.0000000870852,0.0585994,0.0703192,0.0000000761539,-1.423646,-5.397541)">
<stop offset="0" style="stop-color:rgb(0%,0%,0%);stop-opacity:0.313726;"/>
<stop offset="0.222222" style="stop-color:rgb(0%,0%,0%);stop-opacity:0.27451;"/>
<stop offset="1" style="stop-color:rgb(0%,0%,0%);stop-opacity:0;"/>
</radialGradient>
<radialGradient id="radial2" gradientUnits="userSpaceOnUse" cx="450.908936" cy="189.579361" fx="450.908936" fy="189.579361" r="21.166656" gradientTransform="matrix(-0.0000000870852,-0.0585994,0.0703192,-0.0000000761539,-1.423646,47.944567)">
<stop offset="0" style="stop-color:rgb(0%,0%,0%);stop-opacity:0.313726;"/>
<stop offset="0.222222" style="stop-color:rgb(0%,0%,0%);stop-opacity:0.27451;"/>
<stop offset="1" style="stop-color:rgb(0%,0%,0%);stop-opacity:0;"/>
</radialGradient>
<radialGradient id="radial3" gradientUnits="userSpaceOnUse" cx="450.908936" cy="189.579361" fx="450.908936" fy="189.579361" r="21.166656" gradientTransform="matrix(0.0000000870852,0.0585994,-0.0703192,0.0000000761539,25.238422,-5.397542)">
<stop offset="0" style="stop-color:rgb(0%,0%,0%);stop-opacity:0.313726;"/>
<stop offset="0.222222" style="stop-color:rgb(0%,0%,0%);stop-opacity:0.27451;"/>
<stop offset="1" style="stop-color:rgb(0%,0%,0%);stop-opacity:0;"/>
</radialGradient>
<linearGradient id="linear1" gradientUnits="userSpaceOnUse" x1="255.323059" y1="233.5" x2="255.323044" y2="254.666656" gradientTransform="matrix(0.00668003,0,0,0.0468795,10.20182,10.327158)">
<stop offset="0" style="stop-color:rgb(0%,0%,0%);stop-opacity:0.27451;"/>
<stop offset="1" style="stop-color:rgb(0%,0%,0%);stop-opacity:0;"/>
</linearGradient>
<linearGradient id="linear2" gradientUnits="userSpaceOnUse" x1="254" y1="233.5" x2="254" y2="-147.5" gradientTransform="matrix(0.0468795,0,0,0.0468795,0,10.079087)">
<stop offset="0" style="stop-color:rgb(74.117649%,74.117649%,74.117649%);stop-opacity:1;"/>
<stop offset="1" style="stop-color:rgb(87.843138%,87.843138%,87.843138%);stop-opacity:1;"/>
</linearGradient>
</defs>
<g id="surface1">
<path style=" stroke:none;fill-rule:nonzero;fill:url(#linear0);" d="M 20.839844 5.644531 C 20.839844 6.46875 20.171875 7.132812 19.347656 7.132812 L 4.464844 7.132812 C 3.644531 7.132812 2.976562 6.46875 2.976562 5.644531 C 2.976562 4.824219 3.644531 4.15625 4.464844 4.15625 L 19.347656 4.15625 C 20.171875 4.15625 20.839844 4.824219 20.839844 5.644531 Z M 20.839844 5.644531 "/>
<path style=" stroke:none;fill-rule:nonzero;fill:url(#radial0);" d="M 12.074219 21.273438 L 13.394531 21.273438 L 13.394531 20.28125 L 12.074219 20.28125 Z M 12.074219 21.273438 "/>
<path style=" stroke:none;fill-rule:nonzero;fill:url(#radial1);" d="M 11.742188 21.273438 L 10.417969 21.273438 L 10.417969 22.265625 L 11.742188 22.265625 Z M 11.742188 21.273438 "/>
<path style=" stroke:none;fill-rule:nonzero;fill:url(#radial2);" d="M 11.742188 21.273438 L 10.417969 21.273438 L 10.417969 20.28125 L 11.742188 20.28125 Z M 11.742188 21.273438 "/>
<path style=" stroke:none;fill-rule:nonzero;fill:url(#radial3);" d="M 12.074219 21.273438 L 13.394531 21.273438 L 13.394531 22.265625 L 12.074219 22.265625 Z M 12.074219 21.273438 "/>
<path style=" stroke:none;fill-rule:nonzero;fill:url(#linear1);" d="M 11.742188 21.027344 L 12.074219 21.027344 L 12.074219 22.265625 L 11.742188 22.265625 Z M 11.742188 21.027344 "/>
<path style=" stroke:none;fill-rule:nonzero;fill:rgb(100%,100%,100%);fill-opacity:0.392157;" d="M 4.464844 4.15625 C 3.640625 4.15625 2.976562 4.820312 2.976562 5.644531 C 2.976562 5.710938 2.980469 5.773438 2.988281 5.839844 C 3.082031 5.105469 3.707031 4.542969 4.464844 4.542969 L 19.347656 4.542969 C 20.109375 4.542969 20.730469 5.105469 20.824219 5.839844 C 20.832031 5.773438 20.839844 5.710938 20.839844 5.644531 C 20.839844 4.820312 20.175781 4.15625 19.347656 4.15625 Z M 4.464844 4.15625 "/>
<path style=" stroke:none;fill-rule:nonzero;fill:rgb(0%,0%,0%);fill-opacity:0.235294;" d="M 4.464844 7.125 C 3.640625 7.125 2.976562 6.460938 2.976562 5.636719 C 2.976562 5.570312 2.980469 5.507812 2.988281 5.441406 C 3.082031 6.175781 3.707031 6.738281 4.464844 6.738281 L 19.347656 6.738281 C 20.109375 6.738281 20.730469 6.175781 20.824219 5.441406 C 20.832031 5.507812 20.839844 5.570312 20.839844 5.636719 C 20.839844 6.460938 20.175781 7.125 19.347656 7.125 Z M 4.464844 7.125 "/>
<path style="fill:none;stroke-width:3;stroke-linecap:square;stroke-linejoin:bevel;stroke:rgb(12.941177%,12.941177%,12.941177%);stroke-opacity:1;stroke-miterlimit:4;" d="M -94.594831 -444.540882 C -77.013177 -444.540882 -62.847863 -430.292242 -62.847863 -412.710588 L -62.847863 -95.240905 C -62.847863 -77.742576 -77.013177 -63.493937 -94.594831 -63.493937 C -112.09316 -63.493937 -126.3418 -77.742576 -126.3418 -95.240905 L -126.3418 -412.710588 C -126.3418 -430.292242 -112.09316 -444.540882 -94.594831 -444.540882 Z M -94.594831 -444.540882 " transform="matrix(0.000000000000000003,0.0468795,-0.0468795,0.000000000000000003,0,10.079087)"/>
<path style=" stroke:none;fill-rule:nonzero;fill:url(#linear2);" d="M 10.914062 3.179688 C 10.367188 3.179688 9.921875 3.621094 9.921875 4.171875 L 9.921875 15.148438 L 5.351562 13.1875 C 5.230469 13.136719 5.097656 13.109375 4.964844 13.109375 C 4.046875 13.105469 3.621094 14.246094 4.320312 14.84375 L 11.265625 20.796875 C 11.632812 21.117188 12.179688 21.117188 12.550781 20.796875 L 19.496094 14.84375 C 19.867188 14.527344 19.949219 13.988281 19.691406 13.574219 C 19.433594 13.160156 18.914062 12.996094 18.464844 13.1875 L 13.890625 15.148438 L 13.890625 4.171875 C 13.890625 3.621094 13.449219 3.179688 12.898438 3.179688 Z M 10.914062 3.179688 "/>
<path style=" stroke:none;fill-rule:nonzero;fill:rgb(100%,100%,100%);fill-opacity:0.784314;" d="M 10.914062 3.179688 C 10.367188 3.179688 9.921875 3.621094 9.921875 4.171875 L 9.921875 4.527344 C 9.921875 3.980469 10.367188 3.535156 10.914062 3.535156 L 12.898438 3.535156 C 13.449219 3.535156 13.890625 3.980469 13.890625 4.527344 L 13.890625 4.171875 C 13.890625 3.621094 13.449219 3.179688 12.898438 3.179688 Z M 18.851562 13.109375 C 18.722656 13.109375 18.589844 13.132812 18.464844 13.1875 L 13.890625 15.148438 L 13.890625 15.503906 L 18.464844 13.542969 C 18.914062 13.351562 19.433594 13.515625 19.691406 13.929688 C 19.757812 14.039062 19.800781 14.15625 19.824219 14.273438 C 19.867188 14.039062 19.824219 13.789062 19.691406 13.574219 C 19.507812 13.277344 19.183594 13.109375 18.851562 13.109375 Z M 4.964844 13.109375 C 4.292969 13.105469 3.882812 13.71875 3.988281 14.28125 C 4.066406 13.84375 4.433594 13.460938 4.964844 13.464844 C 5.097656 13.464844 5.230469 13.492188 5.351562 13.542969 L 9.921875 15.503906 L 9.921875 15.148438 L 5.351562 13.1875 C 5.230469 13.136719 5.097656 13.109375 4.964844 13.109375 Z M 4.964844 13.109375 "/>
<path style=" stroke:none;fill-rule:nonzero;fill:rgb(0%,0%,0%);fill-opacity:0.235294;" d="M 19.824219 13.90625 C 19.78125 14.121094 19.671875 14.320312 19.496094 14.46875 L 12.550781 20.421875 C 12.179688 20.738281 11.632812 20.738281 11.265625 20.421875 L 4.320312 14.46875 C 4.136719 14.3125 4.03125 14.117188 3.992188 13.914062 C 3.929688 14.238281 4.023438 14.589844 4.320312 14.84375 L 11.265625 20.796875 C 11.632812 21.117188 12.179688 21.117188 12.550781 20.796875 L 19.496094 14.84375 C 19.773438 14.609375 19.886719 14.246094 19.824219 13.90625 Z M 19.824219 13.90625 "/>
<path style="fill:none;stroke-width:3;stroke-linecap:round;stroke-linejoin:round;stroke:rgb(12.941177%,12.941177%,12.941177%);stroke-opacity:1;stroke-miterlimit:4;" d="M 232.811101 -147.173144 C 221.145548 -147.173144 211.646455 -137.757376 211.646455 -126.008498 L 211.646455 108.135809 L 114.155765 66.30647 C 111.572679 65.22324 108.739616 64.639962 105.906553 64.639962 C 86.32509 64.556637 77.242624 88.887647 92.157866 101.636429 L 240.310385 228.624303 C 248.14297 235.456984 259.808523 235.456984 267.724434 228.624303 L 415.876952 101.636429 C 423.792863 94.887074 425.542696 83.388172 420.043221 74.555682 C 414.543746 65.723192 403.461471 62.223526 393.879053 66.30647 L 296.305038 108.135809 L 296.305038 -126.008498 C 296.305038 -137.757376 286.88927 -147.173144 275.140392 -147.173144 Z M 232.811101 -147.173144 " transform="matrix(0.0468795,0,0,0.0468795,0,10.079087)"/>
</g>
</svg>
